Roman/SVG_otf/robotface.svg

<svg xmlns="http://www.w3.org/2000/svg" viewBox="0 0 1000 1000" enable-background="new 0 0 1000 1000"><g fill="#666"><path d="m62 793l-12-224c-55 0-76 20-76 83 0 97 28.2 141 88 141"/><path d="m538 793c59.8 0 88-44 88-141 0-63-21-83-76-83l-12 224"/></g><path d="m300 946c-153 0-270-92.4-270-296 0-183.5 104-256 270-256 167 0 270 72.5 270 256 0 203.6-117 296-270 296" fill="#ccc"/><path d="m300 742c130 0 193-24 193-96 0-110-74-160-193-160s-193 50-193 160c0 72 63 96 193 96" fill="#333"/><g fill="#0ff"><path d="m147 668c2-86 26-120 68-120s66 34 68 120l-32 2c-2-44-12-62-36-62s-34 18-36 62l-32-2"/><path d="m317 668c2-86 26-120 68-120s66 34 68 120l-32 2c-2-44-12-62-36-62s-34 18-36 62l-32-2"/></g><path d="m300 861c20 0 37-7 37-24 0-12-7-15-37-15s-37 3-37 15c0 17 17 24 37 24" fill="#333"/></svg>

<?xml version="1.0" encoding="utf-8"?>
<!-- Generator: Adobe Illustrator 19.0.0, SVG Export Plug-In . SVG Version: 6.00 Build 0)  -->
<svg version="1.1" id="glyph20" xmlns="http://www.w3.org/2000/svg" xmlns:xlink="http://www.w3.org/1999/xlink" x="0px" y="0px"
	 viewBox="0 0 1000 1000" style="enable-background:new 0 0 1000 1000;" xml:space="preserve">
<style type="text/css">
	.st0{fill:#666666;}
	.st1{fill:#CCCCCC;}
	.st2{fill:#333333;}
	.st3{fill:#00FFFF;}
</style>
<g>
	<path class="st0" d="M62,793L50,569c-55,0-76,20-76,83C-26,749,2.2,793,62,793z"/>
	<path class="st0" d="M538,793c59.8,0,88-44,88-141c0-63-21-83-76-83L538,793z"/>
	<path class="st1" d="M300,946c-153,0-270-92.4-270-296c0-183.5,104-256,270-256c167,0,270,72.5,270,256C570,853.6,453,946,300,946z
		"/>
	<path class="st2" d="M300,742c130,0,193-24,193-96c0-110-74-160-193-160s-193,50-193,160C107,718,170,742,300,742z"/>
	<path class="st3" d="M147,668c2-86,26-120,68-120s66,34,68,120l-32,2c-2-44-12-62-36-62s-34,18-36,62L147,668z"/>
	<path class="st3" d="M317,668c2-86,26-120,68-120s66,34,68,120l-32,2c-2-44-12-62-36-62s-34,18-36,62L317,668z"/>
	<path class="st2" d="M300,861c20,0,37-7,37-24c0-12-7-15-37-15s-37,3-37,15C263,854,280,861,300,861z"/>
</g>
</svg>
